X: 17
T: Sí Bheag Sí Mhór
C: Turlough O'Carolan
Z: Jim Sime
S: https://thesession.org/tunes/449#setting54115
R: waltz
M: 3/4
L: 1/8
K: Dmaj
de|:"D"f2 fe d2|"Bm"d2 de d2|"G"B4 "A"A2|"D"F4 A2|
"G"BA Bc d2|"A7"e4 de|"D"f2 f2"A" e2|"Bm"d4 f2|
"G"B4 e2|"D/A"A4 d2|"F#m"F4 E2|"Bm"D4 f2|
"G"B4 e2|"A7"A4 dc|"D"d4-"Asus4" d2|"D"d4 de:|
|:"D"f2 fe d2|"A7"ed ef a2|"G"b4 a2|"D"f4 ed|
"A7"e4 a2|"D"f4 e2|"G"d4 B2|"A"B4 A2|
"F#m"F4 E2|"Bm"D4 f2|"G"B4 e2|"F#m"A4 a2|
"G"ba gf "E7sus4"ed|"A7"e4 dc|"D"d4-"Asus4" d2 |1 "D"d4 de:|2 "D"d6||

%-------------------- TUNE SEPARATOR --------------------%

